X:139
T:Indian Queen. WM.139
M:C
L:1/8
Q:1/2=80
S:Wm.Mittell’s MS, New Romney,Kent,1799
R:.Reel
O:England
A:Kent
Z:vmp.Chris Partington
K:D
z|DDDE FDFA|BA (B/c/d)A3f|eddf eddA|BcdF F2E2|!
DDDE FDFA|BABd A3f|eddf eddA|B2c2d3:|!
|:(a/f/)|ddcd (ef/g/) “?”f(a/f/)|ddcd (ef/g/)f2|!
b2a/g/f/e/a2g/f/e/d/|c/d/e/f/ g/f/e/d/ “Da Capo”e/d/c/B/ A/G/F/E/|]
W:note f in bar 9 is crotchet and a half in MS

